Newaita-dark/.LP/16/weather-storm.svg

<svg xmlns="http://www.w3.org/2000/svg" xmlns:xlink="http://www.w3.org/1999/xlink" width="16px" height="16px" viewBox="0 0 16 16" version="1.1">
<defs>
<linearGradient id="linear0" gradientUnits="userSpaceOnUse" x1="232.833328" y1="222.916672" x2="232.833328" y2="48.291668" >
<stop offset="0" style="stop-color:rgb(100%,79.215686%,15.686275%);stop-opacity:1;"/>
<stop offset="1" style="stop-color:rgb(100%,83.529412%,30.980392%);stop-opacity:1;"/>
</linearGradient>
<linearGradient id="linear1" gradientUnits="userSpaceOnUse" x1="960" y1="1695.118164" x2="960" y2="815.118103" gradientTransform="matrix(0.00826903,0,0,0.00826903,0,-5.21671)">
<stop offset="0" style="stop-color:rgb(47.058824%,56.470588%,61.176471%);stop-opacity:1;"/>
<stop offset="1" style="stop-color:rgb(56.470588%,64.313725%,68.235294%);stop-opacity:1;"/>
</linearGradient>
<radialGradient id="radial0" gradientUnits="userSpaceOnUse" cx="450.908936" cy="189.579361" fx="450.908936" fy="189.579361" r="21.166656" gradientTransform="matrix(0.0000000870853,-0.0390662,-0.0703192,-0.0000000507694,20.44239,31.466906)">
<stop offset="0" style="stop-color:rgb(0%,0%,0%);stop-opacity:0.313725;"/>
<stop offset="0.222222" style="stop-color:rgb(0%,0%,0%);stop-opacity:0.27451;"/>
<stop offset="1" style="stop-color:rgb(0%,0%,0%);stop-opacity:0;"/>
</radialGradient>
<radialGradient id="radial1" gradientUnits="userSpaceOnUse" cx="450.908936" cy="189.579361" fx="450.908936" fy="189.579361" r="21.166656" gradientTransform="matrix(-0.0000000870853,0.0390662,0.0703192,0.0000000507694,-5.888921,-4.094501)">
<stop offset="0" style="stop-color:rgb(0%,0%,0%);stop-opacity:0.313725;"/>
<stop offset="0.222222" style="stop-color:rgb(0%,0%,0%);stop-opacity:0.27451;"/>
<stop offset="1" style="stop-color:rgb(0%,0%,0%);stop-opacity:0;"/>
</radialGradient>
<radialGradient id="radial2" gradientUnits="userSpaceOnUse" cx="450.908936" cy="189.579361" fx="450.908936" fy="189.579361" r="21.166656" gradientTransform="matrix(-0.0000000870853,-0.0390662,0.0703192,-0.0000000507694,-5.888921,31.466906)">
<stop offset="0" style="stop-color:rgb(0%,0%,0%);stop-opacity:0.313725;"/>
<stop offset="0.222222" style="stop-color:rgb(0%,0%,0%);stop-opacity:0.27451;"/>
<stop offset="1" style="stop-color:rgb(0%,0%,0%);stop-opacity:0;"/>
</radialGradient>
<radialGradient id="radial3" gradientUnits="userSpaceOnUse" cx="450.908936" cy="189.579361" fx="450.908936" fy="189.579361" r="21.166656" gradientTransform="matrix(0.0000000870853,0.0390662,-0.0703192,0.0000000507694,20.442389,-4.094501)">
<stop offset="0" style="stop-color:rgb(0%,0%,0%);stop-opacity:0.313725;"/>
<stop offset="0.222222" style="stop-color:rgb(0%,0%,0%);stop-opacity:0.27451;"/>
<stop offset="1" style="stop-color:rgb(0%,0%,0%);stop-opacity:0;"/>
</radialGradient>
</defs>
<g id="surface1">
<path style="fill-rule:nonzero;fill:url(#linear0);stroke-width:3;stroke-linecap:square;stroke-linejoin:round;stroke:rgb(12.941177%,12.941177%,12.941177%);stroke-opacity:1;stroke-miterlimit:4;" d="M 248.726369 53.599369 C 245.351689 53.474381 241.97701 55.099227 239.852212 58.098942 L 188.232116 131.841935 C 185.98233 134.966639 185.732354 138.966259 187.357199 142.340938 C 188.857057 146.21557 192.731689 148.84032 197.106273 148.84032 L 266.474682 148.84032 L 226.60347 205.834905 C 223.228791 210.709442 224.478672 217.208825 229.228221 220.583504 C 233.97777 223.958183 240.60214 222.83329 243.97682 217.958753 L 294.472022 145.840605 C 296.471832 143.965784 297.596725 141.341033 297.596725 138.341318 C 297.596725 133.341793 294.222046 129.217185 289.722474 128.092292 C 288.347604 127.717327 287.097723 127.592339 285.847842 127.717327 L 216.979385 127.717327 L 257.225561 70.22279 C 260.60024 65.473241 259.350359 58.84887 254.60081 55.474191 C 252.850977 54.22431 250.726179 53.599369 248.726369 53.599369 Z M 248.726369 53.599369 " transform="matrix(0.031253,0,0,0.031253,0,6.719392)"/>
<path style=" stroke:none;fill-rule:nonzero;fill:url(#linear1);" d="M 10.914062 1.523438 C 9.460938 1.523438 8.210938 2.367188 7.628906 3.597656 C 7.410156 3.539062 7.183594 3.507812 6.945312 3.507812 C 5.8125 3.507812 4.851562 4.210938 4.472656 5.207031 C 4.144531 4.96875 3.742188 4.832031 3.308594 4.832031 C 2.207031 4.832031 1.324219 5.714844 1.324219 6.816406 C 1.324219 7.914062 2.207031 8.800781 3.308594 8.800781 C 3.390625 8.800781 3.46875 8.796875 3.546875 8.785156 C 3.578125 8.796875 3.605469 8.800781 3.636719 8.800781 L 10.914062 8.800781 C 12.929688 8.800781 14.554688 7.175781 14.554688 5.160156 C 14.554688 3.144531 12.929688 1.523438 10.914062 1.523438 Z M 10.914062 1.523438 "/>
<path style=" stroke:none;fill-rule:nonzero;fill:rgb(100%,100%,100%);fill-opacity:0.392157;" d="M 10.914062 1.523438 C 9.460938 1.523438 8.210938 2.367188 7.628906 3.597656 C 7.410156 3.539062 7.183594 3.507812 6.945312 3.507812 C 5.8125 3.507812 4.851562 4.210938 4.472656 5.207031 C 4.144531 4.96875 3.742188 4.832031 3.308594 4.832031 C 2.207031 4.832031 1.324219 5.714844 1.324219 6.816406 C 1.324219 6.84375 1.324219 6.871094 1.324219 6.898438 C 1.367188 5.835938 2.234375 4.996094 3.308594 4.996094 C 3.742188 4.996094 4.144531 5.136719 4.472656 5.371094 C 4.851562 4.378906 5.8125 3.671875 6.945312 3.671875 C 7.183594 3.671875 7.410156 3.703125 7.628906 3.761719 C 8.210938 2.535156 9.460938 1.6875 10.914062 1.6875 C 12.902344 1.6875 14.507812 3.265625 14.550781 5.246094 C 14.554688 5.21875 14.554688 5.191406 14.554688 5.160156 C 14.554688 3.144531 12.929688 1.523438 10.914062 1.523438 Z M 10.914062 1.523438 "/>
<path style=" stroke:none;fill-rule:nonzero;fill:rgb(0%,0%,0%);fill-opacity:0.235294;" d="M 14.550781 5.085938 C 14.511719 7.066406 12.90625 8.648438 10.914062 8.648438 L 3.636719 8.648438 C 3.605469 8.648438 3.578125 8.644531 3.546875 8.636719 C 3.46875 8.644531 3.390625 8.648438 3.308594 8.648438 C 2.234375 8.648438 1.363281 7.804688 1.324219 6.742188 C 1.324219 6.765625 1.324219 6.789062 1.324219 6.816406 C 1.324219 7.914062 2.207031 8.800781 3.308594 8.800781 C 3.390625 8.800781 3.46875 8.796875 3.546875 8.785156 C 3.578125 8.796875 3.605469 8.800781 3.636719 8.800781 L 10.914062 8.800781 C 12.929688 8.800781 14.554688 7.175781 14.554688 5.160156 C 14.554688 5.136719 14.554688 5.113281 14.550781 5.085938 Z M 14.550781 5.085938 "/>
<path style="fill:none;stroke-width:3;stroke-linecap:round;stroke-linejoin:miter;stroke:rgb(12.941177%,12.941177%,12.941177%);stroke-opacity:1;stroke-miterlimit:4;" d="M 349.216821 -166.254742 C 302.721239 -166.254742 262.725039 -139.257308 244.101808 -99.886048 C 237.102473 -101.76087 229.853162 -102.760775 222.228886 -102.760775 C 185.98233 -102.760775 155.235251 -80.262913 143.111403 -48.390941 C 132.612401 -56.015216 119.738624 -60.389801 105.864942 -60.389801 C 70.618291 -60.389801 42.370974 -32.142484 42.370974 3.104167 C 42.370974 38.22583 70.618291 66.598134 105.864942 66.598134 C 108.489692 66.598134 110.989455 66.473146 113.489217 66.098182 C 114.489122 66.473146 115.364039 66.598134 116.363944 66.598134 L 349.216821 66.598134 C 413.710693 66.598134 465.705753 14.603074 465.705753 -49.890798 C 465.705753 -114.384671 413.710693 -166.254742 349.216821 -166.254742 Z M 349.216821 -166.254742 " transform="matrix(0.031253,0,0,0.031253,0,6.719392)"/>
<path style=" stroke:none;fill-rule:nonzero;fill:url(#radial0);" d="M 7.277344 13.6875 L 8.601562 13.6875 L 8.601562 13.023438 L 7.277344 13.023438 Z M 7.277344 13.6875 "/>
<path style=" stroke:none;fill-rule:nonzero;fill:url(#radial1);" d="M 7.277344 13.6875 L 5.953125 13.6875 L 5.953125 14.347656 L 7.277344 14.347656 Z M 7.277344 13.6875 "/>
<path style=" stroke:none;fill-rule:nonzero;fill:url(#radial2);" d="M 7.277344 13.6875 L 5.953125 13.6875 L 5.953125 13.023438 L 7.277344 13.023438 Z M 7.277344 13.6875 "/>
<path style=" stroke:none;fill-rule:nonzero;fill:url(#radial3);" d="M 7.277344 13.6875 L 8.601562 13.6875 L 8.601562 14.347656 L 7.277344 14.347656 Z M 7.277344 13.6875 "/>
</g>
</svg>

<svg xmlns="http://www.w3.org/2000/svg" width="16" height="16"><defs><linearGradient id="a" gradientUnits="userSpaceOnUse" x1="232.833" y1="222.917" x2="232.833" y2="48.292"><stop offset="0" stop-color="#ffca28"/><stop offset="1" stop-color="#ffd54f"/></linearGradient><linearGradient id="b" gradientUnits="userSpaceOnUse" x1="960" y1="1695.118" x2="960" y2="815.118" gradientTransform="matrix(.00827 0 0 .00827 0 -5.217)"><stop offset="0" stop-color="#78909c"/><stop offset="1" stop-color="#90a4ae"/></linearGradient><radialGradient id="c" gradientUnits="userSpaceOnUse" cx="450.909" cy="189.579" fx="450.909" fy="189.579" r="21.167" gradientTransform="matrix(0 -.03907 -.07032 0 20.442 31.467)"><stop offset="0" stop-opacity=".314"/><stop offset=".222" stop-opacity=".275"/><stop offset="1" stop-opacity="0"/></radialGradient><radialGradient id="d" gradientUnits="userSpaceOnUse" cx="450.909" cy="189.579" fx="450.909" fy="189.579" r="21.167" gradientTransform="matrix(0 .03907 .07032 0 -5.889 -4.095)"><stop offset="0" stop-opacity=".314"/><stop offset=".222" stop-opacity=".275"/><stop offset="1" stop-opacity="0"/></radialGradient><radialGradient id="e" gradientUnits="userSpaceOnUse" cx="450.909" cy="189.579" fx="450.909" fy="189.579" r="21.167" gradientTransform="matrix(0 -.03907 .07032 0 -5.889 31.467)"><stop offset="0" stop-opacity=".314"/><stop offset=".222" stop-opacity=".275"/><stop offset="1" stop-opacity="0"/></radialGradient><radialGradient id="f" gradientUnits="userSpaceOnUse" cx="450.909" cy="189.579" fx="450.909" fy="189.579" r="21.167" gradientTransform="matrix(0 .03907 -.07032 0 20.442 -4.095)"><stop offset="0" stop-opacity=".314"/><stop offset=".222" stop-opacity=".275"/><stop offset="1" stop-opacity="0"/></radialGradient></defs><path d="M248.726 53.6c-3.374-.126-6.749 1.5-8.874 4.499l-51.62 73.743c-2.25 3.125-2.5 7.124-.875 10.499 1.5 3.875 5.375 6.5 9.75 6.5h69.368l-39.872 56.994c-3.374 4.874-2.124 11.374 2.625 14.749 4.75 3.374 11.374 2.25 14.749-2.625l50.495-72.118c2-1.875 3.125-4.5 3.125-7.5 0-5-3.375-9.124-7.875-10.249-1.374-.375-2.624-.5-3.874-.375h-68.869l40.247-57.494c3.374-4.75 2.124-11.374-2.625-14.749a10.24 10.24 0 0 0-5.875-1.875zm0 0" transform="matrix(.03125 0 0 .03125 0 6.72)" fill="url(#a)" stroke-width="3" stroke-linecap="square" stroke-linejoin="round" stroke="#212121"/><path d="M10.914 1.523A3.624 3.624 0 0 0 7.63 3.598a2.638 2.638 0 0 0-3.156 1.61 1.972 1.972 0 0 0-1.164-.376 1.977 1.977 0 0 0-1.985 1.984 1.98 1.98 0 0 0 2.223 1.97.242.242 0 0 0 .09.015h7.277a3.634 3.634 0 0 0 3.64-3.64 3.631 3.631 0 0 0-3.64-3.638zm0 0" fill="url(#b)"/><path d="M10.914 1.523A3.624 3.624 0 0 0 7.63 3.598a2.638 2.638 0 0 0-3.156 1.61 1.972 1.972 0 0 0-1.164-.376 1.977 1.977 0 0 0-1.985 1.984v.082A1.979 1.979 0 0 1 3.31 4.996a2 2 0 0 1 1.164.375 2.644 2.644 0 0 1 3.156-1.61 3.63 3.63 0 0 1 3.285-2.074 3.63 3.63 0 0 1 3.637 3.56c.004-.028.004-.056.004-.087a3.631 3.631 0 0 0-3.64-3.637zm0 0" fill="#fff" fill-opacity=".392"/><path d="M14.55 5.086a3.627 3.627 0 0 1-3.636 3.562H3.637a.355.355 0 0 1-.09-.011 2.374 2.374 0 0 1-.238.011 1.98 1.98 0 0 1-1.985-1.906v.074a1.98 1.98 0 0 0 2.223 1.97.242.242 0 0 0 .09.015h7.277a3.634 3.634 0 0 0 3.64-3.64c0-.024 0-.048-.003-.075zm0 0" fill-opacity=".235"/><path d="M10.914 1.523A3.624 3.624 0 0 0 7.63 3.598a2.638 2.638 0 0 0-3.156 1.61 1.972 1.972 0 0 0-1.164-.376 1.977 1.977 0 0 0-1.985 1.984 1.98 1.98 0 0 0 2.223 1.97.242.242 0 0 0 .09.015h7.277a3.634 3.634 0 0 0 3.64-3.64 3.631 3.631 0 0 0-3.64-3.638zm0 0" fill="none" stroke-width=".09375" stroke-linecap="round" stroke="#212121"/><path d="M7.277 13.688h1.325v-.665H7.277zm0 0" fill="url(#c)"/><path d="M7.277 13.688H5.953v.66h1.324zm0 0" fill="url(#d)"/><path d="M7.277 13.688H5.953v-.665h1.324zm0 0" fill="url(#e)"/><path d="M7.277 13.688h1.325v.66H7.277zm0 0" fill="url(#f)"/></svg>
